Backpack-Common/Icons/Assets/Media.xcassets/speaker-mute-sm.imageset/speaker-mute-sm.svg

<svg viewBox="0 0 24 24" fill="none" xmlns="http://www.w3.org/2000/svg">
<path d="M5.89252 17.2483H3.14135C1.40643 17.2483 0 16.0731 0 14.6234V9.37598C0 7.92628 1.40643 6.75106 3.14135 6.75106H6.62865C6.88514 6.75106 7.13271 6.67239 7.3244 6.52999L13.5952 1.8713C14.7207 1.0352 16.5 1.70279 16.5 2.96114V6.64085L20.6712 2.46967C20.9641 2.17678 21.4389 2.17678 21.7318 2.46967C22.0247 2.76256 22.0247 3.23744 21.7318 3.53033L3.53033 21.7318C3.23744 22.0247 2.76256 22.0247 2.46967 21.7318C2.17678 21.4389 2.17678 20.9641 2.46967 20.6712L5.89252 17.2483Z" fill="#161616"/>
<path d="M9.76731 19.2845C9.58359 19.148 9.56395 18.8802 9.7258 18.7184L15.8598 12.5843C16.0961 12.3481 16.5 12.5154 16.5 12.8495V21.0389C16.5 22.2973 14.7206 22.9648 13.5952 22.1286L9.76731 19.2845Z" fill="#161616"/>
<path d="M20.9832 7.91538C20.8771 7.76166 20.8911 7.5531 21.0231 7.42105L21.6512 6.79294C21.8072 6.63699 22.064 6.6483 22.1978 6.82359C23.3384 8.31741 24 10.0946 24 12C24 14.1371 23.1677 16.1129 21.7608 17.7085C21.4791 18.028 20.9423 18.0952 20.5619 17.8585C20.1815 17.6219 20.1015 17.171 20.3833 16.8514C21.579 15.4954 22.2858 13.8181 22.2858 12C22.2858 10.511 21.8117 9.11639 20.9832 7.91538Z" fill="#161616"/>
<path d="M18.5957 9.84843C18.4834 9.96079 18.4554 10.1312 18.5158 10.2782C18.737 10.8174 18.8573 11.3964 18.8573 12C18.8573 12.9098 18.5841 13.7638 18.1035 14.5095C17.8782 14.8592 18.033 15.2961 18.4492 15.4854C18.8655 15.6747 19.3857 15.5447 19.611 15.195C20.2239 14.244 20.5715 13.155 20.5715 12C20.5715 11.0111 20.3167 10.0706 19.8588 9.22369C19.7449 9.01301 19.4617 8.98244 19.2924 9.1518L18.5957 9.84843Z" fill="#161616"/>
</svg>

<svg xmlns="http://www.w3.org/2000/svg" viewBox="0 0 24 24"><path d="M5.893 17.248H3.14c-1.734 0-3.14-1.175-3.14-2.625V9.376c0-1.45 1.406-2.625 3.141-2.625H6.63c.256 0 .504-.079.695-.221l6.271-4.659c1.126-.836 2.905-.168 2.905 1.09v3.68l4.171-4.171a.75.75 0 1 1 1.06 1.06l-18.2 18.202a.75.75 0 0 1-1.061-1.06zm3.874 2.037a.375.375 0 0 1-.041-.567l6.134-6.134a.375.375 0 0 1 .64.266v8.189c0 1.258-1.78 1.926-2.905 1.09zm11.216-11.37a.39.39 0 0 1 .04-.494l.628-.628a.363.363 0 0 1 .547.03C23.338 8.318 24 10.096 24 12c0 2.137-.832 4.113-2.24 5.709-.28.319-.818.386-1.198.15s-.46-.688-.179-1.008c1.196-1.356 1.903-3.033 1.903-4.851 0-1.489-.474-2.884-1.303-4.085"/><path d="M18.596 9.848a.4.4 0 0 0-.08.43c.221.54.341 1.118.341 1.722a4.6 4.6 0 0 1-.753 2.51c-.226.35-.071.786.345.975.416.19.937.06 1.162-.29.613-.951.96-2.04.96-3.195 0-.989-.254-1.93-.712-2.776a.355.355 0 0 0-.567-.072z"/></svg>
